X:97
M:2/4
L:1/8
K:G
|:g2 gb|g2 gb|edef|gd BG|g2 gb|g2 gb|edef|g2 G2:|

